X: 65
T: No_69_Where_Has_He_Gone?.krn
N: Derived from No_69_Where_Has_He_Gone?.krn
%%abc-version 2.0
%%abcx-abcm2ps-target-version 5.9.1 (29 Sep 2008)
%%abc-creator hum2abc beta
%%abcx-conversion-date 2019/03/15 08:27:55
%%humdrum-veritas 3648524009
%%humdrum-veritas-data 356146730
%%linebreak <none>
%%barnumbers 0
L: 1/8
M: 3/4
K: F clef=bass
[K:clef=bass][M:3/4]z4z3/ C/ | 
GG/F/ G/G3/ G/F3/ | 
[M:2/4]CC CC | 
CC C z | 
[M:3/4]F/F/G F/F/F F3/D/ | 
[M:2/4]FF/F/ F/_E3/ | 
[M:3/4]CC C C//G,// z/ CC | 
C2C2z C | 
[M:2/4]C C//G,// z/ CC | 
C/G,3/G,2 | 
F,G, G,G,/F,/ | 
G,G, G,F, | 
C,4 |]  



